X: 33414
T: Quilty, The
R: hornpipe
M: 4/4
K: Cmajor
GF|:EGcd (3efe de|fedc ABcF|EGcd ecBc|agec d2GF|
EGcd (3efe de|fedc ABcF|EGce dcBd|1 c4 z2 GF:|2 c4cGcd||
|:ecBc (3ABA GF|EGcd ecBc|(3aba (3gag (3fgf (3efe|Addc Bcdf|
ecBc (3ABA GF|EGcd ecBc|(3aba (3gag (3fgf (3efe|dGBd c4:|

